usr/share/icons/biglinux-icons-material/16/devices/auth-sim.svg

<svg version="1.1" viewBox="0 0 16 16" xmlns="http://www.w3.org/2000/svg">
 <style id="current-color-scheme" type="text/css">.ColorScheme-Text {
            color:#363636;
        }</style>
 <path style="fill:currentColor" class="ColorScheme-Text" d="m4 1c-1.108 0-2 0.892-2 2v10c0 1.108 0.892 2 2 2h8c1.108 0 2-0.892 2-2v-6.5859-1.4141l-4-4h-6zm0 1h5.5859l3.4141 3.4141v7.5859c0 0.554-0.446 1-1 1h-8c-0.554 0-1-0.446-1-1v-10c0-0.554 0.446-1 1-1zm1 2c-0.554 0-1 0.446-1 1v2.293l1.293-1.293h0.70703v-2h-1zm2 0v2h2v-2h-2zm3 0v2h0.70703l1.293 1.293v-1.4668l-1.8262-1.8262h-0.17383zm-4.293 3-1 1h-0.70703v1h0.70703l1 1h4.5859l1-1h0.70703v-1h-0.70703l-1-1h-4.5859zm-1.707 2.707v2.293c0 0.554 0.446 1 1 1h1v-2h-0.70703l-1.293-1.293zm8 0-1.293 1.293h-0.70703v2h1c0.554 0 1-0.446 1-1v-2.293zm-5 1.293v2h2v-2h-2z"/>
</svg>

<svg xmlns="http://www.w3.org/2000/svg" viewBox="0 0 16 16"><path d="M4 1c-1.108 0-2 .892-2 2v10c0 1.108.892 2 2 2h8c1.108 0 2-.892 2-2V5l-4-4H4zm0 1h5.586L13 5.414V13c0 .554-.446 1-1 1H4c-.554 0-1-.446-1-1V3c0-.554.446-1 1-1zm1 2c-.554 0-1 .446-1 1v2.293L5.293 6H6V4H5zm2 0v2h2V4H7zm3 0v2h.707L12 7.293V5.826L10.174 4H10zM5.707 7l-1 1H4v1h.707l1 1h4.586l1-1H12V8h-.707l-1-1H5.707zM4 9.707V12c0 .554.446 1 1 1h1v-2h-.707L4 9.707zm8 0L10.707 11H10v2h1c.554 0 1-.446 1-1V9.707zM7 11v2h2v-2H7z" style="fill:currentColor;color:#dedede"/></svg>
